T: Arrane Ben Drogh Hraghtalagh
M: 4/4
L: 1/8
K: Dmaj
DEFG A2A2 | G2G2 F2D2 | DEFG A2A2 | d4 A4 |
DEFG A2A2 | G2G2 F2D2 | DEFG A2D2 | E4 D4 |
d4 F4 | E2E2 F4 | DEFG A2 D2 | E4 D4 ||
